web/themes/custom/subsites/bellcom_theme/assets/images/profile2user.svg

<svg width="50" height="50" viewBox="0 0 80 80" fill="none" xmlns="http://www.w3.org/2000/svg">
<path d="M54.7 13.3334C61.1667 13.3334 66.3667 18.5667 66.3667 25C66.3667 31.3 61.3667 36.4334 55.1333 36.6667C54.8454 36.6334 54.5546 36.6334 54.2667 36.6667M61.1333 66.6667C63.5333 66.1667 65.8 65.2 67.6666 63.7667C72.8666 59.8667 72.8666 53.4334 67.6666 49.5334C65.8333 48.1334 63.6 47.2 61.2333 46.6667M30.5333 36.2334C30.2 36.2 29.8 36.2 29.4333 36.2334C25.6073 36.1035 21.9821 34.4895 19.3254 31.7332C16.6687 28.977 15.1891 25.2949 15.2 21.4667C15.2 13.3 21.8 6.66671 30 6.66671C33.9208 6.59599 37.7091 8.08569 40.5315 10.8081C43.3539 13.5305 44.9793 17.2626 45.05 21.1834C45.1207 25.1042 43.631 28.8925 40.9086 31.7149C38.1862 34.5373 34.4541 36.1627 30.5333 36.2334ZM13.8667 48.5334C5.79998 53.9334 5.79998 62.7334 13.8667 68.1C23.0333 74.2334 38.0667 74.2334 47.2333 68.1C55.3 62.7 55.3 53.9 47.2333 48.5334C38.1 42.4334 23.0667 42.4334 13.8667 48.5334Z" stroke="black" stroke-width="1.5" stroke-linecap="round" stroke-linejoin="round"/>
</svg>

<svg width="50" height="50" viewBox="0 0 80 80" fill="none" xmlns="http://www.w3.org/2000/svg"><path d="M54.7 13.333c6.467 0 11.667 5.234 11.667 11.667 0 6.3-5 11.433-11.234 11.667a3.771 3.771 0 00-.866 0m6.866 30c2.4-.5 4.667-1.467 6.534-2.9 5.2-3.9 5.2-10.334 0-14.234-1.834-1.4-4.067-2.333-6.434-2.866m-30.7-10.434a6.047 6.047 0 00-1.1 0A14.733 14.733 0 0115.2 21.467c0-8.167 6.6-14.8 14.8-14.8a14.786 14.786 0 11.533 29.566zm-16.666 12.3c-8.067 5.4-8.067 14.2 0 19.567 9.166 6.133 24.2 6.133 33.366 0 8.067-5.4 8.067-14.2 0-19.567-9.133-6.1-24.166-6.1-33.366 0z" stroke="#000" stroke-width="1.5" stroke-linecap="round" stroke-linejoin="round"/></svg>
